X: 15813
T: Goose Girl Kissed Me On May Day Morn, The
R: reel
M: 4/4
K: Gmajor
GE|:D3EG3A|BGdG edBc|d2Bd geBc|d3Bd2GE|
D3EG3A|BGdG e2ef|gage dBge|1 dBAG EGGE:|2 dBABG2Bc||
|:d2Bcd2ef|gaged2ef|gage dBGB|BGced2ef|
gaged2(3def|gaged3f|gage dcBd|1 cAFAG2Bc:|2 cAFAG2||

